docs/img/phone.svg

<svg width="24" height="24" viewBox="0 0 24 24" fill="none" xmlns="http://www.w3.org/2000/svg">
<path fill-rule="evenodd" clip-rule="evenodd" d="M2.82834 0.76529C3.09081 0.503212 3.40598 0.299907 3.75297 0.168848C4.09996 0.0377897 4.47084 -0.0180293 4.84104 0.00509005C5.21123 0.0282094 5.57228 0.129739 5.90027 0.302951C6.22826 0.476164 6.51569 0.717103 6.74352 1.0098L9.43614 4.46896C9.92966 5.10349 10.1037 5.93003 9.90866 6.71006L9.08812 9.99521C9.0457 10.1654 9.04799 10.3436 9.09478 10.5126C9.14156 10.6816 9.23125 10.8356 9.35513 10.9598L13.0408 14.6454C13.1651 14.7696 13.3194 14.8594 13.4887 14.9062C13.6579 14.953 13.8365 14.9551 14.0068 14.9124L17.2905 14.0919C17.6754 13.9957 18.0772 13.9882 18.4655 14.07C18.8537 14.1519 19.2183 14.321 19.5316 14.5644L22.9908 17.2555C24.2343 18.2231 24.3483 20.0607 23.2353 21.1722L21.6842 22.7233C20.5741 23.8333 18.9151 24.3209 17.3685 23.7763C13.4101 22.3836 9.81606 20.1174 6.85302 17.146C3.88182 14.1834 1.61569 10.5899 0.222717 6.63206C-0.320308 5.08699 0.167214 3.42641 1.27726 2.31636L2.82834 0.76529Z" fill="#747F85"/>
</svg>

<svg xmlns="http://www.w3.org/2000/svg" width="24" height="24" fill="none"><path fill="#747F85" fill-rule="evenodd" d="M2.828.765a2.618 2.618 0 0 1 3.916.245l2.692 3.459c.494.634.668 1.461.473 2.241l-.82 3.285a1.02 1.02 0 0 0 .266.965l3.686 3.685a1.02 1.02 0 0 0 .966.267l3.284-.82a2.62 2.62 0 0 1 2.24.472l3.46 2.692a2.617 2.617 0 0 1 .244 3.916l-1.55 1.551c-1.11 1.11-2.77 1.598-4.316 1.053a27.95 27.95 0 0 1-10.516-6.63A27.95 27.95 0 0 1 .223 6.632C-.32 5.087.167 3.426 1.277 2.316z" clip-rule="evenodd"/></svg>
